X: 1
T: The Imp In The Quarry
R: jig
M: 6/8
L: 1/8
K: Ddor
DED ABA|AGA cBA|~G3 dGG|FAc EDC|
DED ABA|AGA cde|dgB cAF|1 EDC D2A,:|2 EDC D2d||
dAd dfe|~c3 cBA|~G3 dGG|FAc egf|
dAd dfe|~c3 cde|dgB cAF|EDC D2d|
dAd dfe|~c3 cBA|~G3 dGG|FAc egf|
dAd dfe|~c3 efg|fAd eGc|dFA EDC||

